public/favicon.svg

<svg xmlns="http://www.w3.org/2000/svg" width="512" height="512" fill="none"><rect width="512" height="512" fill="url(#a)" rx="64"/><path fill="#fff" fill-rule="evenodd" d="M161 96c-17.673 0-32 14.327-32 32v256c0 17.673 14.327 32 32 32h190c17.673 0 32-14.327 32-32V162c0-13.044-7.805-24.266-19-29.249V128c0-17.673-14.327-32-32-32H161Zm5 286h166c17.673 0 32-14.327 32-32V141.822c6.619 4.273 11 11.714 11 20.178v222c0 13.255-10.745 24-24 24H166c-7.18 0-13-5.82-13-13s5.82-13 13-13Zm92-230v38a5 5 0 0 0 5 5h38a5 5 0 0 1 5 5v14a5 5 0 0 1-5 5h-38a5 5 0 0 0-5 5v102a5 5 0 0 1-5 5h-14a5 5 0 0 1-5-5V224a5 5 0 0 0-5-5h-38a5 5 0 0 1-5-5v-14a5 5 0 0 1 5-5h38a5 5 0 0 0 5-5v-38a5 5 0 0 1 5-5h14a5 5 0 0 1 5 5Z" clip-rule="evenodd"/><path fill="#fff" d="M168 395h33v41l-16.5-10-16.5 10v-41Z"/><defs><linearGradient id="a" x1="464.5" x2="51" y1="47.5" y2="461" gradientUnits="userSpaceOnUse"><stop stop-color="#ECD0A9"/><stop offset="1" stop-color="#9E8370"/></linearGradient></defs></svg>

<svg width="512" height="512" viewBox="0 0 512 512" fill="none" xmlns="http://www.w3.org/2000/svg">
<rect width="512" height="512" rx="64" fill="url(#paint0_linear_23_21)"/>
<path fill-rule="evenodd" clip-rule="evenodd" d="M161 96C143.327 96 129 110.327 129 128V162V345V350V384C129 401.673 143.327 416 161 416H197H351C368.673 416 383 401.673 383 384V162C383 148.956 375.195 137.734 364 132.751V128C364 110.327 349.673 96 332 96H161ZM166 382H197H332C349.673 382 364 367.673 364 350V141.822C370.619 146.095 375 153.536 375 162V384C375 397.255 364.255 408 351 408H197H166C158.82 408 153 402.18 153 395C153 387.82 158.82 382 166 382ZM258 152V159V190C258 192.761 260.239 195 263 195H294H301C303.761 195 306 197.239 306 200V214C306 216.761 303.761 219 301 219H294H263C260.239 219 258 221.239 258 224V319V326C258 328.761 255.761 331 253 331H239C236.239 331 234 328.761 234 326V319V224C234 221.239 231.761 219 229 219H198H191C188.239 219 186 216.761 186 214V200C186 197.239 188.239 195 191 195H198H229C231.761 195 234 192.761 234 190V159V152C234 149.239 236.239 147 239 147H253C255.761 147 258 149.239 258 152Z" fill="white"/>
<path d="M168 395H201V436L184.5 426L168 436V395Z" fill="white"/>
<defs>
<linearGradient id="paint0_linear_23_21" x1="464.5" y1="47.5" x2="51" y2="461" gradientUnits="userSpaceOnUse">
<stop stop-color="#ECD0A9"/>
<stop offset="1" stop-color="#9E8370"/>
</linearGradient>
</defs>
</svg>
